img/footer/logo.svg

<svg width="252" height="42" viewBox="0 0 252 42" fill="none" xmlns="http://www.w3.org/2000/svg">
<path d="M8.96807 39.5539C6.54431 38.315 4.51532 36.4266 3.10922 34.101C1.68352 31.7089 0.953129 28.9687 0.99965 26.1866C0.953129 23.4045 1.68352 20.6643 3.10922 18.2722C4.51485 15.9455 6.54389 14.0559 8.96807 12.8161C11.586 11.4785 14.4941 10.8039 17.4355 10.852C20.3634 10.8043 23.2578 11.479 25.8609 12.8161C28.2728 14.0621 30.2917 15.9494 31.6938 18.269C33.1179 20.6618 33.8482 23.4015 33.8034 26.1834C33.8488 28.9664 33.1185 31.7073 31.6938 34.101C30.2917 36.4206 28.2728 38.3079 25.8609 39.5539C23.2579 40.8914 20.3635 41.5661 17.4355 41.518C14.4941 41.5666 11.5859 40.892 8.96807 39.5539ZM22.9023 32.1919C24.3281 30.6973 25.041 28.6955 25.041 26.1866C25.041 23.6777 24.3292 21.6749 22.9055 20.1781C21.4797 18.6835 19.6564 17.9362 17.4355 17.9362C16.4109 17.9034 15.3907 18.0861 14.4416 18.4723C13.4924 18.8586 12.6355 19.4398 11.9267 20.1781C10.4814 21.6727 9.75875 23.6745 9.75875 26.1834C9.75875 28.6923 10.4814 30.6941 11.9267 32.1887C12.6355 32.927 13.4924 33.5082 14.4416 33.8944C15.3907 34.2807 16.4109 34.4634 17.4355 34.4305C19.6564 34.4327 21.4797 33.6865 22.9055 32.1919H22.9023Z" fill="url(#paint0_linear_1710_5293)"/>
<path d="M66.7206 14.1727C68.9976 16.3866 70.1361 19.6708 70.1361 24.0253V41.0753H61.4742V25.3562C61.4742 22.9873 60.9557 21.2246 59.9187 20.0681C58.8818 18.9116 57.3825 18.3302 55.4209 18.3237C53.2346 18.3237 51.4945 18.9978 50.2004 20.3459C48.9064 21.6941 48.2583 23.6958 48.2561 26.3512V41.0753H39.5942V11.3073H47.8673V14.78C49.0526 13.499 50.5156 12.5047 52.1447 11.8726C53.9298 11.1746 55.8334 10.8269 57.7508 10.8486C61.4537 10.8508 64.4436 11.9588 66.7206 14.1727Z" fill="url(#paint1_linear_1710_5293)"/>
<path d="M78.5225 0H85.4636V41.0743H78.5225V0Z" fill="white"/>
<path d="M99.79 39.5266C97.4396 38.2905 95.4856 36.4198 94.1515 34.1286C92.7809 31.747 92.0811 29.0404 92.1262 26.295C92.0795 23.5586 92.7795 20.8609 94.1515 18.4904C95.4925 16.212 97.4454 14.3524 99.79 13.1215C102.311 11.8475 105.099 11.1836 107.925 11.1836C110.752 11.1836 113.539 11.8475 116.061 13.1215C118.404 14.3532 120.356 16.2126 121.696 18.4904C123.069 20.8606 123.77 23.5583 123.724 26.295C123.769 29.0407 123.068 31.7473 121.696 34.1286C120.362 36.4192 118.41 38.2897 116.061 39.5266C113.539 40.8006 110.752 41.4645 107.925 41.4645C105.099 41.4645 102.311 40.8006 99.79 39.5266ZM114.227 32.9948C115.894 31.2978 116.727 29.0645 116.725 26.295C116.723 23.5255 115.89 21.2933 114.227 19.5984C112.561 17.9014 110.451 17.0529 107.898 17.0529C105.344 17.0529 103.243 17.9014 101.595 19.5984C99.9488 21.2954 99.1246 23.5276 99.1225 26.295C99.1203 29.0623 99.9445 31.2956 101.595 32.9948C103.23 34.6875 105.331 35.5339 107.898 35.5339C110.464 35.5339 112.574 34.6875 114.227 32.9948Z" fill="white"/>
<path d="M135.607 39.5266C133.258 38.29 131.305 36.4194 129.972 34.1286C128.601 31.747 127.901 29.0404 127.947 26.295C127.9 23.5586 128.6 20.8609 129.972 18.4904C131.313 16.212 133.266 14.3524 135.61 13.1215C138.132 11.8475 140.919 11.1836 143.746 11.1836C146.572 11.1836 149.36 11.8475 151.881 13.1215C154.224 14.3532 156.176 16.2126 157.516 18.4904C158.889 20.8606 159.591 23.5583 159.545 26.295C159.589 29.0407 158.888 31.7473 157.516 34.1286C156.183 36.4192 154.23 38.2897 151.881 39.5266C149.36 40.8006 146.572 41.4645 143.746 41.4645C140.919 41.4645 138.132 40.8006 135.61 39.5266H135.607ZM150.044 32.9948C151.711 31.2978 152.544 29.0645 152.542 26.295C152.54 23.5255 151.707 21.2933 150.044 19.5984C148.378 17.9014 146.268 17.0529 143.715 17.0529C141.161 17.0529 139.065 17.9014 137.425 19.5984C135.779 21.2954 134.955 23.5276 134.953 26.295C134.95 29.0623 135.775 31.2956 137.425 32.9948C139.071 34.6918 141.172 35.5403 143.728 35.5403C146.284 35.5403 148.389 34.6918 150.044 32.9948Z" fill="white"/>
<path d="M178.307 28.3983L173.145 33.2729V41.0775H166.204V0H173.145V24.7996L187.527 11.5131H195.858L183.473 23.9048L197.021 41.0646H188.596L178.307 28.3983Z" fill="white"/>
<path d="M228.065 28.5078H204.795C205.14 30.5804 206.286 32.4358 207.987 33.6764C209.715 34.9491 211.853 35.5855 214.4 35.5855C217.658 35.5855 220.342 34.5152 222.453 32.3745L226.173 36.6354C224.819 38.2387 223.081 39.4763 221.121 40.234C218.923 41.0806 216.582 41.4984 214.225 41.4648C210.967 41.4648 208.098 40.8187 205.618 39.5266C203.222 38.315 201.226 36.441 199.87 34.1286C198.499 31.7469 197.799 29.0404 197.844 26.295C197.804 23.5745 198.483 20.8914 199.815 18.5162C201.096 16.2424 202.991 14.3723 205.285 13.1182C207.701 11.805 210.417 11.1373 213.169 11.18C215.874 11.1338 218.545 11.7918 220.917 13.0892C223.169 14.3379 225.018 16.2002 226.247 18.4581C227.526 20.7645 228.165 23.4307 228.163 26.4565C228.16 26.9389 228.128 27.6226 228.065 28.5078ZM207.546 18.6842C205.997 20.0192 204.997 21.8787 204.74 23.9045H221.565C221.336 21.8933 220.366 20.0387 218.843 18.7003C217.331 17.3716 215.442 16.7072 213.178 16.7072C211.121 16.6539 209.116 17.3576 207.546 18.6842Z" fill="white"/>
<path d="M252 11.1836V17.7671C251.466 17.6624 250.924 17.6073 250.38 17.6024C247.677 17.6024 245.568 18.3863 244.051 19.9541C242.535 21.5219 241.778 23.7831 241.783 26.7379V41.0743H234.838V11.5131H241.446V15.8289C243.446 12.732 246.964 11.1836 252 11.1836Z" fill="white"/>
<defs>
<linearGradient id="paint0_linear_1710_5293" x1="0.997559" y1="10.8477" x2="24.1164" y2="63.2144" gradientUnits="userSpaceOnUse">
<stop stop-color="#0ABD92"/>
<stop offset="1" stop-color="#009DB8"/>
</linearGradient>
<linearGradient id="paint1_linear_1710_5293" x1="0.997559" y1="10.8477" x2="24.1164" y2="63.2144" gradientUnits="userSpaceOnUse">
<stop stop-color="#0ABD92"/>
<stop offset="1" stop-color="#009DB8"/>
</linearGradient>
</defs>
</svg>

<svg width="252" height="42" fill="none" xmlns="http://www.w3.org/2000/svg"><path d="M8.968 39.554A14.622 14.622 0 013.11 34.1 14.969 14.969 0 011 26.187a14.969 14.969 0 012.11-7.915 14.623 14.623 0 015.86-5.456 17.966 17.966 0 018.467-1.964 17.807 17.807 0 018.425 1.964 14.696 14.696 0 015.833 5.453 15.001 15.001 0 012.11 7.914 15.001 15.001 0 01-2.11 7.918 14.696 14.696 0 01-5.833 5.453 17.797 17.797 0 01-8.425 1.964 17.954 17.954 0 01-8.468-1.964zm13.934-7.362c1.426-1.495 2.139-3.497 2.139-6.005 0-2.51-.712-4.512-2.136-6.009-1.425-1.495-3.249-2.242-5.47-2.242a7.323 7.323 0 00-5.508 2.242c-1.446 1.495-2.168 3.496-2.168 6.005 0 2.51.722 4.511 2.168 6.006a7.3 7.3 0 005.509 2.242c2.22.002 4.044-.744 5.47-2.24h-.004z" fill="url(#paint0_linear_1710_5293)"/><path d="M66.72 14.173c2.278 2.214 3.416 5.498 3.416 9.852v17.05h-8.662V25.356c0-2.369-.518-4.131-1.555-5.288-1.037-1.156-2.536-1.738-4.498-1.744-2.186 0-3.926.674-5.22 2.022-1.295 1.348-1.943 3.35-1.945 6.005v14.724h-8.662V11.307h8.273v3.473a11.49 11.49 0 014.278-2.907 14.931 14.931 0 015.606-1.024c3.703.002 6.693 1.11 8.97 3.324z" fill="url(#paint1_linear_1710_5293)"/><path d="M78.522 0h6.942v41.074h-6.942V0zM99.79 39.527a14.139 14.139 0 01-5.639-5.398 15.204 15.204 0 01-2.025-7.834 15.066 15.066 0 012.025-7.805 14.2 14.2 0 015.639-5.368 18.04 18.04 0 0116.271 0 14.205 14.205 0 015.635 5.368 15.064 15.064 0 012.028 7.805 15.192 15.192 0 01-2.028 7.834 14.148 14.148 0 01-5.635 5.398 18.045 18.045 0 01-16.271 0zm14.437-6.532c1.667-1.697 2.5-3.93 2.498-6.7-.002-2.77-.835-5.002-2.498-6.697-1.666-1.697-3.776-2.545-6.329-2.545-2.554 0-4.655.848-6.303 2.545-1.646 1.697-2.47 3.93-2.472 6.697-.003 2.767.822 5 2.472 6.7 1.635 1.693 3.736 2.539 6.303 2.539 2.566 0 4.676-.846 6.329-2.54zm21.38 6.532a14.138 14.138 0 01-5.635-5.398 15.19 15.19 0 01-2.025-7.834 15.063 15.063 0 012.025-7.805 14.203 14.203 0 015.638-5.368 18.045 18.045 0 0116.271 0 14.205 14.205 0 015.635 5.368 15.065 15.065 0 012.029 7.805 15.203 15.203 0 01-2.029 7.834 14.141 14.141 0 01-5.635 5.398 18.04 18.04 0 01-16.271 0h-.003zm14.437-6.532c1.667-1.697 2.5-3.93 2.498-6.7-.002-2.77-.835-5.002-2.498-6.697-1.666-1.697-3.776-2.545-6.329-2.545-2.554 0-4.65.848-6.29 2.545-1.646 1.697-2.47 3.93-2.472 6.697-.003 2.767.822 5 2.472 6.7 1.646 1.697 3.747 2.545 6.303 2.545s4.661-.848 6.316-2.545zm28.263-4.597l-5.162 4.875v7.804h-6.941V0h6.941v24.8l14.382-13.287h8.331l-12.385 12.392 13.548 17.16h-8.425l-10.289-12.667zm49.758.11h-23.27a8.03 8.03 0 003.192 5.168c1.728 1.273 3.866 1.91 6.413 1.91 3.258 0 5.942-1.07 8.053-3.212l3.72 4.261a12.522 12.522 0 01-5.052 3.599 18.455 18.455 0 01-6.896 1.23c-3.258 0-6.127-.645-8.607-1.937a13.97 13.97 0 01-5.748-5.398 15.202 15.202 0 01-2.026-7.834c-.04-2.72.639-5.404 1.971-7.779a13.966 13.966 0 015.47-5.398 15.99 15.99 0 017.884-1.938 15.593 15.593 0 017.748 1.91 13.546 13.546 0 015.33 5.368c1.279 2.307 1.918 4.973 1.916 7.998a33.784 33.784 0 01-.098 2.052zm-20.519-9.824a8.266 8.266 0 00-2.806 5.22h16.825a8.157 8.157 0 00-2.722-5.204c-1.512-1.328-3.401-1.993-5.665-1.993a8.39 8.39 0 00-5.632 1.977zm44.454-7.5v6.583a8.83 8.83 0 00-1.62-.165c-2.703 0-4.812.784-6.329 2.352-1.516 1.568-2.273 3.83-2.268 6.784v14.336h-6.945v-29.56h6.608v4.315c2-3.097 5.518-4.645 10.554-4.645z" fill="#fff"/><defs><linearGradient id="paint0_linear_1710_5293" x1=".998" y1="10.848" x2="24.116" y2="63.214" gradientUnits="userSpaceOnUse"><stop stop-color="#0ABD92"/><stop offset="1" stop-color="#009DB8"/></linearGradient><linearGradient id="paint1_linear_1710_5293" x1=".998" y1="10.848" x2="24.116" y2="63.214" gradientUnits="userSpaceOnUse"><stop stop-color="#0ABD92"/><stop offset="1" stop-color="#009DB8"/></linearGradient></defs></svg>
